X: 1388
T: The Donkey Ate My Old Straw Hat
B: australian traditional tunes wiki
M:4/4
L:1/8
R: Schottische
Q: 1/4=100
K:D
V:1 
A2|"D"d>e f>d "A7"c>d e>c|"G"B>c d>B "D"A>F D>F|"G"G>A B>G "D"F>G A>F|"A7"E2e>d e>g ((3f/g/f/e)|
"D"d>e f>d "A7"c>d e>c|"G"B>c d>B "D"A>F D>F|"G"G>A B>G "D"F>E F>G|"A7"A>g ((3f/g/f/e) "D"d2 (3efg||
"D"a>f d>f "A7"e>c A>c|"G"B>d g>b "D"a>f d>f|"A7"a>e "D"f>d "A7"e>c "G"d>B|"A7"A2e>d e>g ((3f/g/f/e)|
"D"a>f d>f "A7"e>c A>c|"G"B>d g>b "D"a>f d>f|"A7"a>e "D"f>d "A7"e>c "G"d>B|"A7"A>a ((3f/g/f/e) "D"d4||
% abcbook-tune_id 6342d53a69f859bcd4b965ba


% abcbook-boost 0
% abcbook-tablature 
% abcbook-transpose 
% abcbook-lastupdated 1665324362587
% abcbook-soundfonts 
% abcbook-repeats 1
% NFF Book 2015

